X:25
T:Reel 25
M:4/4
K:Emin
L:1/8
BA|GEEF B,EB,E|FDED FDAD|GEED B,EEe||dBAF GEE:||2dBAF GEE2|Beef edBe|dBAG FDDc|Bee^d edef|gefd Beed|Beef gfe^c|dBAG FDDF|EGFA GBAc|dBAF GEE2|
